icons/evolvere-blue-folders-flat-vivid-dark-fallback/apps/64/vlc.svg

<svg xmlns="http://www.w3.org/2000/svg" viewBox="0 0 64 64" xmlns:xlink="http://www.w3.org/1999/xlink"><defs><path id="0" d="m9 14.5a.5 .5 0 1 1 -1 0 .5 .5 0 1 1 1 0" fill="#414f5a" color="#000"/></defs><g color="#000"><path d="m0 2v32 28l2 2h30 30l2-2v-28-32h-32z" fill="#f3851f"/><path fill="#ded7b4" d="m0 2h64v14h-64z"/><path d="m0 16v3h64v-3h-32z" fill-opacity=".084" fill="#400"/><path d="m2 0l-2 1v1h32 32v-1l-2-1h-30z" fill="#fff"/><path d="m0 2v1.406l4 5.594-4 5.594v1.406h4l5-7-5-7h-4m9 0l5 7-5 7h5l5-7-5-7h-5m10 0l5 7-5 7h5l5-7-5-7h-5m10 0l5 7-5 7h5l5-7-5-7h-5m10 0l5 7-5 7h5l5-7-5-7h-5m10 0l5 7-5 7h5l5-7-5-7h-5m10 0l5 7v-7h-5m5 7l-5 7h5v-7" fill="#4d4a49"/><path d="m2 0l-2 1v1h4v-2h-2m7 0v2h5v-2h-5m10 0v2h5v-2h-5m10 0v2h3 2v-2h-2-3m10 0v2h5v-2h-5m10 0v2h5v-2h-5m10 0v2h5v-1l-2-1h-3" fill="#a39f9e"/></g><g fill="#400" fill-opacity=".084"><path d="m0 8v1h2 30 32v-1h-32z"/><path d="m0 10v-1h2 30 32v1h-32z" color="#000"/></g><path d="m1 3l12 12h-12z" fill="#e3b31b" color="#000"/><use transform="translate(1-1)" xlink:href="#0"/><use transform="translate(-6-1)" xlink:href="#0"/><use transform="translate(-6-8)" xlink:href="#0"/><path d="m0 1v3l2-2" fill="#b1adac"/><g color="#000"><path d="m49 38a17 17 0 1 1 -34 0 17 17 0 1 1 34 0" transform="matrix(.88235 0 0 .88235 3.765 6.471)" fill="#ebebe2"/><path d="m26 30.406v19.19l16-9.594-16-9.594" fill="#4d4a49"/></g><path d="m64 4l-2-2 2-1z" fill="#7e7b7a"/></svg>

<?xml version="1.0" encoding="UTF-8" standalone="no"?>
<!-- Created with Inkscape (http://www.inkscape.org/) -->

<svg
   xmlns:dc="http://purl.org/dc/elements/1.1/"
   xmlns:cc="http://creativecommons.org/ns#"
   xmlns:rdf="http://www.w3.org/1999/02/22-rdf-syntax-ns#"
   xmlns:svg="http://www.w3.org/2000/svg"
   xmlns="http://www.w3.org/2000/svg"
   xmlns:sodipodi="http://sodipodi.sourceforge.net/DTD/sodipodi-0.dtd"
   xmlns:inkscape="http://www.inkscape.org/namespaces/inkscape"
   width="64"
   height="64"
   id="svg13094"
   version="1.1"
   inkscape:version="0.91+devel r"
   sodipodi:docname="vlc.svg">
  <sodipodi:namedview
     id="base"
     pagecolor="#ffffff"
     bordercolor="#666666"
     borderopacity="1.0"
     inkscape:pageopacity="0"
     inkscape:pageshadow="2"
     inkscape:zoom="11.313709"
     inkscape:cx="37.790901"
     inkscape:cy="35.453501"
     inkscape:document-units="px"
     inkscape:current-layer="svg13094"
     showgrid="true"
     inkscape:snap-bbox="true"
     inkscape:bbox-paths="true"
     inkscape:bbox-nodes="true"
     inkscape:snap-bbox-edge-midpoints="true"
     inkscape:snap-bbox-midpoints="true"
     inkscape:object-paths="true"
     inkscape:snap-intersection-paths="true"
     inkscape:object-nodes="true"
     inkscape:snap-smooth-nodes="true"
     inkscape:snap-midpoints="true"
     inkscape:snap-object-midpoints="true"
     inkscape:snap-center="true"
     showguides="true"
     inkscape:guide-bbox="true"
     inkscape:window-width="1920"
     inkscape:window-height="1023"
     inkscape:window-x="-10"
     inkscape:window-y="35"
     inkscape:window-maximized="1"
     inkscape:snap-global="true"
     fit-margin-top="0"
     fit-margin-left="0"
     fit-margin-right="0"
     fit-margin-bottom="0"
     showborder="true"
     inkscape:showpageshadow="false"
     inkscape:snap-page="true">
    <inkscape:grid
       type="xygrid"
       id="grid3075"
       empspacing="5"
       visible="true"
       enabled="true"
       snapvisiblegridlinesonly="true"
       originx="0px"
       originy="18px" />
  </sodipodi:namedview>
  <defs
     id="defs13096" />
  <metadata
     id="metadata13099">
    <rdf:RDF>
      <cc:Work
         rdf:about="">
        <dc:format>image/svg+xml</dc:format>
        <dc:type
           rdf:resource="http://purl.org/dc/dcmitype/StillImage" />
        <dc:title></dc:title>
      </cc:Work>
    </rdf:RDF>
  </metadata>
  <path
     sodipodi:nodetypes="ccccccccccc"
     inkscape:connector-curvature="0"
     style="color:#000000;fill:#f3851f;fill-opacity:1;fill-rule:nonzero;stroke:none;stroke-width:2.28571415;marker:none;visibility:visible;display:inline;overflow:visible;enable-background:accumulate"
     d="m 0,2 0,32 0,28 2,2 30,0 30,0 2,-2 0,-28 0,-32 -32,0 z"
     id="path4086" />
  <rect
     style="color:#000000;fill:#ded7b4;fill-opacity:1;fill-rule:nonzero;stroke:none;stroke-width:0.88235295;marker:none;visibility:visible;display:inline;overflow:visible;enable-background:accumulate"
     id="rect3832"
     width="64"
     height="14"
     x="0"
     y="2" />
  <path
     id="path3398"
     d="m 0,16 0,3 64,0 0,-3 -32,0 z"
     style="color:#000000;fill:#440000;fill-opacity:0.08407874;fill-rule:nonzero;stroke:none;stroke-width:1;marker:none;visibility:visible;display:inline;overflow:visible;enable-background:accumulate;opacity:1;stroke-linecap:butt;stroke-linejoin:miter;stroke-miterlimit:4;stroke-dasharray:none;stroke-dashoffset:0;stroke-opacity:1"
     inkscape:connector-curvature="0"
     sodipodi:nodetypes="cccccc" />
  <path
     id="path6161"
     d="M 2,0 0,1 0,2 32,2 64,2 64,1 62,0 32,0 z"
     style="color:#000000;fill:#ffffff;fill-opacity:1;fill-rule:nonzero;stroke:none;stroke-width:2.28571415000000000;marker:none;visibility:visible;display:inline;overflow:visible;enable-background:accumulate"
     inkscape:connector-curvature="0"
     sodipodi:nodetypes="ccccccccc" />
  <g
     id="g3043"
     inkscape:export-filename="folder.png"
     inkscape:export-xdpi="90"
     inkscape:export-ydpi="90"
     transform="translate(-0.625,0.082283)" />
  <g
     id="scalable"
     transform="matrix(1.0385892,0,0,1.0385892,1214.7222,1878.8121)"
     inkscape:label="#g3701"
     style="fill:#ffffff" />
  <path
     inkscape:connector-curvature="0"
     id="path5599"
     d="m 32,0 0,4 0,30 32,0 L 64,4 64,1 62,0 32,0 z m 0,34 -32,0 0,28 2,2 30,0 0,-30 z"
     style="color:#000000;fill:url(#linearGradient5601);fill-opacity:1;fill-rule:nonzero;stroke:none;marker:none;visibility:visible;display:inline;overflow:visible;enable-background:accumulate" />
  <path
     style="color:#000000;fill:#4d4a49;fill-opacity:1;fill-rule:nonzero;stroke:none;stroke-width:1;marker:none;visibility:visible;display:inline;overflow:visible;enable-background:accumulate"
     d="M 0 2 L 0 3.40625 L 4 9 L 0 14.59375 L 0 16 L 4 16 L 9 9 L 4 2 L 0 2 z M 9 2 L 14 9 L 9 16 L 14 16 L 19 9 L 14 2 L 9 2 z M 19 2 L 24 9 L 19 16 L 24 16 L 29 9 L 24 2 L 19 2 z M 29 2 L 34 9 L 29 16 L 34 16 L 39 9 L 34 2 L 29 2 z M 39 2 L 44 9 L 39 16 L 44 16 L 49 9 L 44 2 L 39 2 z M 49 2 L 54 9 L 49 16 L 54 16 L 59 9 L 54 2 L 49 2 z M 59 2 L 64 9 L 64 2 L 59 2 z M 64 9 L 59 16 L 64 16 L 64 9 z "
     id="path3915" />
  <path
     style="color:#000000;fill:#a39f9e;fill-opacity:1;fill-rule:nonzero;stroke:none;stroke-width:1;marker:none;visibility:visible;display:inline;overflow:visible;enable-background:accumulate"
     d="M 2 0 L 0 1 L 0 2 L 4 2 L 4 0 L 2 0 z M 9 0 L 9 2 L 14 2 L 14 0 L 9 0 z M 19 0 L 19 2 L 24 2 L 24 0 L 19 0 z M 29 0 L 29 2 L 32 2 L 34 2 L 34 0 L 32 0 L 29 0 z M 39 0 L 39 2 L 44 2 L 44 0 L 39 0 z M 49 0 L 49 2 L 54 2 L 54 0 L 49 0 z M 59 0 L 59 2 L 64 2 L 64 1 L 62 0 L 59 0 z "
     id="rect3921" />
  <path
     sodipodi:nodetypes="cccccccc"
     inkscape:connector-curvature="0"
     id="path3951"
     d="M 0,8 0,9 2,9 32,9 64,9 64,8 32,8 z"
     style="fill:#440000;fill-opacity:0.08407874;fill-rule:nonzero" />
  <path
     style="fill:#440000;fill-opacity:0.08407874;fill-rule:nonzero;color:#000000;stroke:none;stroke-width:1;marker:none;visibility:visible;display:inline;overflow:visible;enable-background:accumulate;stroke-linecap:butt;stroke-linejoin:miter;stroke-miterlimit:4;stroke-opacity:1;stroke-dasharray:none;stroke-dashoffset:0;opacity:1"
     d="m 0,10 0,-1 2,0 30,0 32,0 0,1 -32,0 z"
     id="path4298"
     inkscape:connector-curvature="0"
     sodipodi:nodetypes="cccccccc" />
  <g
     id="g3943">
    <path
       sodipodi:nodetypes="cccc"
       inkscape:connector-curvature="0"
       id="rect3934"
       d="M 1,3 13,15 1,15 z"
       style="color:#000000;fill:#e3b31b;fill-opacity:1;fill-rule:nonzero;stroke:none;stroke-width:1;marker:none;visibility:visible;display:inline;overflow:visible;enable-background:accumulate" />
    <path
       transform="translate(1,-1)"
       sodipodi:type="arc"
       style="color:#000000;fill:#414f5a;fill-opacity:1;fill-rule:nonzero;stroke:none;stroke-width:1;marker:none;visibility:visible;display:inline;overflow:visible;enable-background:accumulate"
       id="path3939"
       sodipodi:cx="8.5"
       sodipodi:cy="14.5"
       sodipodi:rx="0.5"
       sodipodi:ry="0.5"
       d="m 9,14.5 a 0.5,0.5 0 1 1 -1,0 0.5,0.5 0 1 1 1,0 z" />
    <path
       sodipodi:type="arc"
       style="color:#000000;fill:#414f5a;fill-opacity:1;fill-rule:nonzero;stroke:none;stroke-width:1;marker:none;visibility:visible;display:inline;overflow:visible;enable-background:accumulate"
       id="path3941"
       sodipodi:cx="8.5"
       sodipodi:cy="14.5"
       sodipodi:rx="0.5"
       sodipodi:ry="0.5"
       d="m 9,14.5 a 0.5,0.5 0 1 1 -1,0 0.5,0.5 0 1 1 1,0 z"
       transform="translate(-6,-1)" />
    <path
       transform="translate(-6,-8)"
       d="m 9,14.5 a 0.5,0.5 0 1 1 -1,0 0.5,0.5 0 1 1 1,0 z"
       sodipodi:ry="0.5"
       sodipodi:rx="0.5"
       sodipodi:cy="14.5"
       sodipodi:cx="8.5"
       id="path3937"
       style="color:#000000;fill:#414f5a;fill-opacity:1;fill-rule:nonzero;stroke:none;stroke-width:1;marker:none;visibility:visible;display:inline;overflow:visible;enable-background:accumulate"
       sodipodi:type="arc" />
  </g>
  <path
     sodipodi:nodetypes="cccc"
     inkscape:connector-curvature="0"
     id="path3949"
     d="M 0,1 0,4 2,2 Z"
     style="fill:#b1adac;fill-opacity:1;fill-rule:nonzero" />
  <path
     sodipodi:type="arc"
     style="color:#000000;fill:#ebebe2;fill-opacity:1;fill-rule:nonzero;stroke:none;stroke-width:1;marker:none;visibility:visible;display:inline;overflow:visible;enable-background:accumulate"
     id="path3023"
     sodipodi:cx="32"
     sodipodi:cy="38"
     sodipodi:rx="17"
     sodipodi:ry="17"
     d="m 49,38 a 17,17 0 1 1 -34,0 17,17 0 1 1 34,0 z"
     transform="matrix(0.88235297,0,0,0.88235297,3.7647044,6.4705863)" />
  <path
     inkscape:connector-curvature="0"
     style="color:#000000;fill:#4d4a49;fill-opacity:1;fill-rule:nonzero;stroke:none;stroke-width:1;marker:none;visibility:visible;display:inline;overflow:visible;enable-background:accumulate"
     d="m 26,30.406249 0,19.1875 16,-9.59375 -16,-9.59375 z"
     id="path3915-4" />
  <path
     d="M 64,4 62,2 64,1 z"
     id="path3028"
     style="fill:#7e7b7a;fill-opacity:1"
     inkscape:connector-curvature="0"
     sodipodi:nodetypes="cccc" />
</svg>
